icons/a4-portrait-32.svg

<?xml version="1.0" encoding="UTF-8"?><svg id="icons" xmlns="http://www.w3.org/2000/svg" viewBox="0 0 32 32"><defs><style>.cls-1{fill:none;}.cls-1,.cls-2,.cls-3{stroke-width:0px;}.cls-2{opacity:.25;}</style></defs><rect class="cls-1" width="32" height="32"/><path class="cls-2" d="M18,6H6v-3h12v3Z"/><path class="cls-3" d="M19.29999,2H5v10h1V3h12v8h8v18H6v-2h-1v3h22V9.69897l-7.70001-7.69897ZM19,10V3l7,7h-7ZM21,25.9248h-1v-3h-5.98633l6.54449-8.9248h.44184s0,8,0,8h2v.9248h-2v3ZM15.98633,22h4.01367v-5.54785l-4.01367,5.54785ZM4.68896,22h5.62207l1.67657,4h1.08398l-5.02948-12h-1.08423L1.92841,26h1.08398l1.67657-4ZM7.5,15.29346l2.39185,5.70654h-4.78369l2.39185-5.70654Z"/></svg>

<svg xmlns="http://www.w3.org/2000/svg" viewBox="0 0 32 32"><path stroke-width="0" fill="none" d="M0 0h32v32H0z"/><path d="M18 6H6V3h12v3z" opacity=".25" stroke-width="0"/><path d="M19.3 2H5v10h1V3h12v8h8v18H6v-2H5v3h22V9.699L19.3 2zm-.3 8V3l7 7h-7zm2 15.925h-1v-3h-5.986L20.558 14H21v8h2v.925h-2v3zM15.986 22H20v-5.548L15.986 22zM4.69 22h5.622l1.677 4h1.084l-5.03-12H6.958l-5.03 12h1.084l1.677-4zm2.81-6.707L9.892 21H5.108L7.5 15.293z" stroke-width="0"/></svg>
